X: 13711
T: For The Sake Of Old Decency
R: reel
M: 4/4
K: Dmajor
A2FD EFDF|A2FD EDB,B|A2FD EFDF|AFED B,DDB|
A2FD EFDF|A2FD EDB,B|A2FD EFDF|AFED B,DDE||
D3B A2FA|Beed BcdB|D3A ADFA|BdAF FEEF|
D3B A2FA|Beed BcdB|D3A ADFA|ABde fedB||

